X: 1752
T: Sevdim Bir Gonca-i Rânâ
C: Dede Efendi
O: Turkey
F: http://compmusic.upf.edu/node/140
N: evic--sarki--aksak--sevdim_bir_gonca-i_rana--dede_efendi
N: makam= evic
N: form= sarki
N: usul= aksak = 9/8
M: 9/8
L: 1/16
K: C _1/4B ^f ^c 
Q: 1/4=180
%%MIDI tuningsystem comma53
f3=c' b2a2 g2^3/4f2 e4 d2 | d3ag2 =f2e2 d2=c4B2  | \
w:  ARANAĞME  |   | 
A3B =c2d2 edcB A4 GF | 
w:   | 
FG AB=c2 BAAG GFF6  | f3=c' b2a2 g2^3/4f2 e4 d2 | \
w:   |  ARANAĞME  | 
d3ag2 =f2e2 d2=c4B2  | 
w:   | 
A3B =c2d2 edcB A4 GF | FG AB=c2 BAAG GFfg f^3/4ede  | 
w:   |   | 
f4 f2f2 f4 a2a2 gf | f4f2 g2f4^3/4e3/2f/ e2f2  | \
w:  (Ah) Sev dim  bir  gon  |  *  ca  i  râ nâ    | 
d4 c2d2 ^3/4e2f2 d4 z2 | 
w:  *  Ger da nı  *  el  | 
^3/4e2 f2g2 a2g2 f2e2 f2{a}g{a}f  | \
w:  mas *  *  *  tan  *  â  | 
{g}f6^3/4e2 ed{e}de f3g eg | f4^1/4e2 f2g2 f2a2 g2f2  | 
w:  *  lâ   SAZ  |  *  Raks_ e di *  yor   | 
e3d d2e=f ed=c_2/4B cdc2 d2 | d=c2_2/4Bd3d.d4c3/2d/ cdB2  | 
w:  *  *  gül_ i  *  zî *  *  *  bâ    |  *  *  *  Bak  be nim  ha  | 
A3/2_2/4B/AG A2B2 =c2d2 c2B2 A2 | \
w:  *  *  *  *  li me  câ *  nâ    | 
A3/2_2/4B/ AGG2 GFF4F6  | F3/2G/F^3/4E F2G2 A3/2B/A{B}G A4 z2 | 
w:  gel  *  *  *  *  ba *  na  SAZ  |  Gel  *  *  *  *  ba na   | 
A3/2B/ AGA2 _2/4B2d4=c2 _1/4B2A2  | \
w:  gel  *  *  *  *  ba na   | 
A4 B4 A2G2 BAG2 GF | F8d^3/4e def4z2  | 
w:  Hay ra nım  *  sa  |  na   SAZ  | 
f3=c' b2a2 g2^3/4f2 e4 d2 | d3ag2 =f2e2 d2=c4B2  | \
w:  ARANAĞME  |   | 
A3B =c2d2 edcB A4 GF | 
w:   | 
FG AB=c2 BAAG GFF6  | f3=c' b2a2 g2^3/4f2 e4 d2 | \
w:   |  ARANAĞME  | 
d3ag2 =f2e2 d2=c4B2  | 
w:   | 
A3B =c2d2 edcB A4 GF | FG AB=c2 BAAG GFfg f^3/4ede  | 
w:   |   | 
f4 f2f2 f4 a2a2 gf | f4f2 g2f4^3/4e3/2f/ e2f2  | \
w:  (Ah) Sev dim  bir  gon  |  *  ca  i  râ nâ    | 
d4 c2d2 ^3/4e2f2 d4 z2 | 
w:  *  Ger da nı  *  el  | 
^3/4e2 f2g2 a2g2 f2e2 f2{a}g{a}f  | \
w:  mas *  *  *  tan  *  â  | 
{g}f6^3/4e2 ed{e}de f3g eg | f4^1/4e2 f2g2 f2a2 g2f2  | 
w:  *  lâ   SAZ  |  *  Raks_ e di *  yor   | 
e3d d2e=f ed=c_2/4B cdc2 d2 | d=c2_2/4Bd3d.d4c3/2d/ cdB2  | 
w:  *  *  gül_ i  *  zî *  *  *  bâ    |  *  *  *  Bak  be nim  ha  | 
A3/2_2/4B/AG A2B2 =c2d2 c2B2 A2 | \
w:  *  *  *  *  li me  câ *  nâ    | 
A3/2_2/4B/ AGG2 GFF4F6  | F3/2G/F^3/4E F2G2 A3/2B/A{B}G A4 z2 | 
w:  gel  *  *  *  *  ba *  na  SAZ  |  Gel  *  *  *  *  ba na   | 
A3/2B/ AGA2 _2/4B2d4=c2 _1/4B2A2  | \
w:  gel  *  *  *  *  ba na   | 
A4 B4 A2G2 BAG2 GF | F8|
w:  Hay ra nım  *  sa  |  na    | 


